cypex/img/main/ourJourney__3.svg

<svg width="128" height="128" viewBox="0 0 128 128" fill="none" xmlns="http://www.w3.org/2000/svg">
<g filter="url(#filter0_d_153_5210)">
<circle cx="64" cy="60" r="32" fill="#A1FFB0"/>
</g>
<path d="M75.1667 69C76.6333 69 77.8333 67.8 77.8333 66.3334V53C77.8333 51.5334 76.6333 50.3334 75.1667 50.3334H53.8333C52.3667 50.3334 51.1667 51.5334 51.1667 53V66.3334C51.1667 67.8 52.3667 69 53.8333 69H48.5V71.6667H80.5V69H75.1667ZM53.8333 53H75.1667V66.3334H53.8333V53Z" fill="#0D0D0D"/>
<defs>
<filter id="filter0_d_153_5210" x="0" y="0" width="128" height="128" filterUnits="userSpaceOnUse" color-interpolation-filters="sRGB">
<feFlood flood-opacity="0" result="BackgroundImageFix"/>
<feColorMatrix in="SourceAlpha" type="matrix" values="0 0 0 0 0 0 0 0 0 0 0 0 0 0 0 0 0 0 127 0" result="hardAlpha"/>
<feOffset dy="4"/>
<feGaussianBlur stdDeviation="16"/>
<feComposite in2="hardAlpha" operator="out"/>
<feColorMatrix type="matrix" values="0 0 0 0 0.631373 0 0 0 0 1 0 0 0 0 0.690196 0 0 0 1 0"/>
<feBlend mode="normal" in2="BackgroundImageFix" result="effect1_dropShadow_153_5210"/>
<feBlend mode="normal" in="SourceGraphic" in2="effect1_dropShadow_153_5210" result="shape"/>
</filter>
</defs>
</svg>

<svg width="128" height="128" fill="none" xmlns="http://www.w3.org/2000/svg"><g filter="url(#a)"><circle cx="64" cy="60" r="32" fill="#A1FFB0"/></g><path d="M75.167 69c1.466 0 2.666-1.2 2.666-2.667V53c0-1.467-1.2-2.667-2.666-2.667H53.833A2.674 2.674 0 0 0 51.167 53v13.333c0 1.467 1.2 2.667 2.666 2.667H48.5v2.667h32V69h-5.333ZM53.833 53h21.334v13.333H53.833V53Z" fill="#0D0D0D"/><defs><filter id="a" x="0" y="0" width="128" height="128" filterUnits="userSpaceOnUse" color-interpolation-filters="sRGB"><feFlood flood-opacity="0" result="BackgroundImageFix"/><feColorMatrix in="SourceAlpha" values="0 0 0 0 0 0 0 0 0 0 0 0 0 0 0 0 0 0 127 0" result="hardAlpha"/><feOffset dy="4"/><feGaussianBlur stdDeviation="16"/><feComposite in2="hardAlpha" operator="out"/><feColorMatrix values="0 0 0 0 0.631373 0 0 0 0 1 0 0 0 0 0.690196 0 0 0 1 0"/><feBlend in2="BackgroundImageFix" result="effect1_dropShadow_153_5210"/><feBlend in="SourceGraphic" in2="effect1_dropShadow_153_5210" result="shape"/></filter></defs></svg>
